Origami/64x64/apps/upwork.svg

<svg width="64" height="64" version="1.1" viewBox="0 0 64 64" xmlns="http://www.w3.org/2000/svg">
 <rect transform="matrix(0,-1,-1,0,0,0)" x="-61" y="-60" width="56" height="56" rx="4.2" ry="4.2" style="opacity:.2"/>
 <rect transform="matrix(0,-1,-1,0,0,0)" x="-60" y="-60" width="56" height="56" rx="4.2" ry="4.2" style="fill:#7cca3e"/>
 <path d="m12 21v14.800782c1.23e-4 0.255734 0.03294 0.510402 0.09766 0.757812 0 0 0.446652 1.707626 1.773438 3.277344 1.326782 1.569718 3.821759 3.164062 7.128902 3.164062 3.307142 0 5.80212-1.594344 7.128906-3.164062s1.773438-3.277344 1.773438-3.277344c0.06472-0.24741 0.09754-0.502078 0.09766-0.757812v-5.498856c0.781344 0.889474 0.722006 0.930204 1.609376 1.875 0.57155 0.60854 1.218344 1.117328 1.816406 1.71875-0.0114 0.05684-0.03164 0.11112-0.04296 0.16796-1.351046 6.781666-1.382826 15.464936-1.382826 16.936364h6c0-0.98816 0.42874-5.969716 0.941406-10.386718 1.657396 1.243778 3.309588 2.295272 5.539062 2.382812 3.442328 0.13516 6.485286-1.16988 8.492188-3.273438 2.006902-2.103556 3.027344-4.894578 3.027344-7.722656 0-6.009524-4.990476-11-11-11-7.142132 0.086456-7.70714 4.967094-9.585938 6.403488-2.514752-2.753016-4.55085-5.346038-5.414062-6.403488h-6s-5.64e-4 1.399576 0 3v11.203124c-0.03638 0.10806-0.08436 0.325424-0.453124 0.76172-0.448216 0.530282-0.954018 1.035156-2.546876 1.035156-1.592857 0-2.098661-0.504874-2.546875-1.035156-0.368773-0.436296-0.416738-0.653664-0.453125-0.76172v-14.203124zm33 6c2.390476 0 5 2.609524 5 5 0 1.371922-0.509608 2.68315-1.367188 3.582032s-2.014316 1.496468-3.914062 1.421874c0.09404 0.0036-1.548464-0.583368-3.257812-1.941406-0.359762-0.285822-0.773968-0.763844-1.152344-1.09375 0.49728-1.641908 0.908776-3.511524 1.5625-4.59375 1.090094-1.80463 1.9136-2.375 3.128906-2.375z" style="fill-rule:evenodd;opacity:.2"/>
 <path d="m12 20v14.800782c1.23e-4 0.255734 0.03294 0.510402 0.09766 0.757812 0 0 0.446652 1.707626 1.773438 3.277344 1.326782 1.569718 3.821759 3.164062 7.128902 3.164062 3.307142 0 5.80212-1.594344 7.128906-3.164062s1.773438-3.277344 1.773438-3.277344c0.06472-0.24741 0.09754-0.502078 0.09766-0.757812v-5.498856c0.781344 0.889474 0.722006 0.930204 1.609376 1.875 0.57155 0.60854 1.218344 1.117328 1.816406 1.71875-0.0114 0.05684-0.03164 0.11112-0.04296 0.16796-1.351046 6.781666-1.382826 15.464936-1.382826 16.936364h6c0-0.98816 0.42874-5.969716 0.941406-10.386718 1.657396 1.243778 3.309588 2.295272 5.539062 2.382812 3.442328 0.13516 6.485286-1.16988 8.492188-3.273438 2.006902-2.103556 3.027344-4.894578 3.027344-7.722656 0-6.009524-4.990476-11-11-11-7.142132 0.086456-7.70714 4.967094-9.585938 6.403488-2.514752-2.753016-4.55085-5.346038-5.414062-6.403488h-6s-5.64e-4 1.399576 0 3v11.203124c-0.03638 0.10806-0.08436 0.325424-0.453124 0.76172-0.448216 0.530282-0.954018 1.035156-2.546876 1.035156-1.592857 0-2.098661-0.504874-2.546875-1.035156-0.368773-0.436296-0.416738-0.653664-0.453125-0.76172v-14.203124zm33 6c2.390476 0 5 2.609524 5 5 0 1.371922-0.509608 2.68315-1.367188 3.582032s-2.014316 1.496468-3.914062 1.421874c0.09404 0.0036-1.548464-0.583368-3.257812-1.941406-0.359762-0.285822-0.773968-0.763844-1.152344-1.09375 0.49728-1.641908 0.908776-3.511524 1.5625-4.59375 1.090094-1.80463 1.9136-2.375 3.128906-2.375z" style="fill-rule:evenodd;fill:#ffffff"/>
 <path d="M 8.1992188 4 C 5.8724187 4 4 5.8724187 4 8.1992188 L 4 9.1992188 C 4 6.8724188 5.8724187 5 8.1992188 5 L 55.800781 5 C 58.127581 5 60 6.8724188 60 9.1992188 L 60 8.1992188 C 60 5.8724187 58.127581 4 55.800781 4 L 8.1992188 4 z" style="fill:#ffffff;opacity:.2"/>
</svg>

<svg xmlns="http://www.w3.org/2000/svg" width="64" height="64" version="1.1" viewBox="0 0 64 64">
 <rect style="opacity:0.2" width="56" height="56" x="-61" y="-60" rx="4.2" ry="4.2" transform="matrix(0,-1,-1,0,0,0)"/>
 <rect style="fill:#7cca3e" width="56" height="56" x="-60" y="-60" rx="4.2" ry="4.2" transform="matrix(0,-1,-1,0,0,0)"/>
 <path style="opacity:0.2;fill-rule:evenodd" d="m 12,21 0,14.800782 c 1.23e-4,0.255734 0.03294,0.510402 0.09766,0.757812 0,0 0.446652,1.707626 1.773438,3.277344 C 15.19788,41.405656 17.692857,43 21,43 c 3.307142,0 5.80212,-1.594344 7.128906,-3.164062 1.326786,-1.569718 1.773438,-3.277344 1.773438,-3.277344 0.06472,-0.24741 0.09754,-0.502078 0.09766,-0.757812 l 0,-5.498856 c 0.781344,0.889474 0.722006,0.930204 1.609376,1.875 0.57155,0.60854 1.218344,1.117328 1.816406,1.71875 -0.0114,0.05684 -0.03164,0.11112 -0.04296,0.16796 C 32.03178,40.845302 32,49.528572 32,51 l 6,0 c 0,-0.98816 0.42874,-5.969716 0.941406,-10.386718 1.657396,1.243778 3.309588,2.295272 5.539062,2.382812 3.442328,0.13516 6.485286,-1.16988 8.492188,-3.273438 C 54.979558,37.6191 56,34.828078 56,32 56,25.990476 51.009524,21 45,21 37.857868,21.086456 37.29286,25.967094 35.414062,27.403488 32.89931,24.650472 30.863212,22.05745 30,21 l -6,0 c 0,0 -5.64e-4,1.399576 0,3 l 0,11.203124 c -0.03638,0.10806 -0.08436,0.325424 -0.453124,0.76172 C 23.09866,36.495126 22.592858,37 21,37 19.407143,37 18.901339,36.495126 18.453125,35.964844 18.084352,35.528548 18.036387,35.31118 18,35.203124 L 18,21 Z m 33,6 c 2.390476,0 5,2.609524 5,5 0,1.371922 -0.509608,2.68315 -1.367188,3.582032 -0.85758,0.898882 -2.014316,1.496468 -3.914062,1.421874 0.09404,0.0036 -1.548464,-0.583368 -3.257812,-1.941406 -0.359762,-0.285822 -0.773968,-0.763844 -1.152344,-1.09375 0.49728,-1.641908 0.908776,-3.511524 1.5625,-4.59375 C 42.961188,27.57037 43.784694,27 45,27 Z"/>
 <path style="fill:#ffffff;fill-rule:evenodd" d="m 12,20 0,14.800782 c 1.23e-4,0.255734 0.03294,0.510402 0.09766,0.757812 0,0 0.446652,1.707626 1.773438,3.277344 C 15.19788,40.405656 17.692857,42 21,42 c 3.307142,0 5.80212,-1.594344 7.128906,-3.164062 1.326786,-1.569718 1.773438,-3.277344 1.773438,-3.277344 0.06472,-0.24741 0.09754,-0.502078 0.09766,-0.757812 l 0,-5.498856 c 0.781344,0.889474 0.722006,0.930204 1.609376,1.875 0.57155,0.60854 1.218344,1.117328 1.816406,1.71875 -0.0114,0.05684 -0.03164,0.11112 -0.04296,0.16796 C 32.03178,39.845302 32,48.528572 32,50 l 6,0 c 0,-0.98816 0.42874,-5.969716 0.941406,-10.386718 1.657396,1.243778 3.309588,2.295272 5.539062,2.382812 3.442328,0.13516 6.485286,-1.16988 8.492188,-3.273438 C 54.979558,36.6191 56,33.828078 56,31 56,24.990476 51.009524,20 45,20 37.857868,20.086456 37.29286,24.967094 35.414062,26.403488 32.89931,23.650472 30.863212,21.05745 30,20 l -6,0 c 0,0 -5.64e-4,1.399576 0,3 l 0,11.203124 c -0.03638,0.10806 -0.08436,0.325424 -0.453124,0.76172 C 23.09866,35.495126 22.592858,36 21,36 19.407143,36 18.901339,35.495126 18.453125,34.964844 18.084352,34.528548 18.036387,34.31118 18,34.203124 L 18,20 Z m 33,6 c 2.390476,0 5,2.609524 5,5 0,1.371922 -0.509608,2.68315 -1.367188,3.582032 -0.85758,0.898882 -2.014316,1.496468 -3.914062,1.421874 0.09404,0.0036 -1.548464,-0.583368 -3.257812,-1.941406 -0.359762,-0.285822 -0.773968,-0.763844 -1.152344,-1.09375 0.49728,-1.641908 0.908776,-3.511524 1.5625,-4.59375 C 42.961188,26.57037 43.784694,26 45,26 Z"/>
 <path style="opacity:0.2;fill:#ffffff" d="M 8.1992188 4 C 5.8724187 4 4 5.8724187 4 8.1992188 L 4 9.1992188 C 4 6.8724188 5.8724187 5 8.1992188 5 L 55.800781 5 C 58.127581 5 60 6.8724188 60 9.1992188 L 60 8.1992188 C 60 5.8724187 58.127581 4 55.800781 4 L 8.1992188 4 z"/>
</svg>
